X:154
T: Der Meierin Sohn
N: Q2083D
O: Suedosteuropa, Jugoslawien, Slowenien, Reifnitz
N: Slowenische Fassung der Ballade. Verzierung (Nachschlag) in der
N: ersten Zeile.
R: Ballade, Mord, Vergeltung, Heirat
M: 4/4
L: 1/8
K: G
D2G2A2 | _B4A4 | d2c_BA4 | z2
D2G2A2 | _B3AG2FG | AFG6 | z2
D2G2A2 | _B3AG2FG | AFG6 | z2

@@@ Tune index: 1209
